X:1
T:G minor Walter Janes, 1807
T:Isaac Watts, 1706 A sight of heaven in sickness     86. 86. (C. M.) 
T:Despondency
T:Transcribed from The Harmonic Minstrelsey, 1807.
%%score [ 1 2 3 4 ]
L:1/8
Q:1/4=120
M:4/4
K:Bb
V:1 treble nm="Tr." snm="Tr."
V:2 treble nm="C." snm="C."
V:3 treble-8 nm="T." snm="T."
V:4 bass nm="B." snm="B."
V:1
 d4 d2 c2 | B6 d2 | e4 c4 | d6 e2 | d6 B2 | c4 (B2 G2) | d8 |: z4 d4 | f6 e2 | d4 c4 | B4 (c3 B) | %11
w: 1.~Oft have I|sat in|se- cret|sighs To|feel my|flesh de- *|cay;|Then|groaned a-|loud with|frigh- ted *|
w: 2.~But I for-|bid my|sor- rows|now, Nor|dares the|flesh com- *|plain;|Dis-|ea- ses|bring their|pro- fits *|
 B6 z2 | z4 z2 d2 | c2 c2 B2 c2 | (d4 c4) | z4 [Bd]4 | [cg]4 ([df]2 e2) | d4 d4 | d8 :| %19
w: eyes,|To|view the tot- tering|clay, *|To|view the *|tot- tering|clay.|
w: too,|The|joy o'er- comes the|pain, *|The|joy o'er- *|comes the|pain.|
V:2
 G4 ^F2 F2 | G6 ^F2 | G4 A4 | B6 B2 | A6 G2 | G4 G4 | ^F8 |: z4 F4 | F6 F2 | F4 F4 | F4 A4 | %11
w: 3.~My cheer- ful|soul now|all the|day Sits|wai- ting|here and|sings;|Looks|through the|ru- ins|of her|
w: 4.~Faith al- most|chan- ges|in- to|light, While|from a-|far she|spies|Her|fair in-|her- i-|tance in|
 B6 A2 | B4 (A2 B2) | G4 F4 | F8 | z4 G4 | G4 A4 | B4 F4 | G8 :| %19
w: clay, And|prac- ti- *|ces her|wings,|And|prac- ti-|ces her|wings.|
w: light A-|bove cre- *|a- ted|skies,|A-|bove cre-|a- ted|skies.|
V:3
 d4 B2 A2 | G6 AB | c4 (A2 F2) | D6 G2 | ^F6 G2 | G4 (G2 AB) | A8 |: z4 d4 | A6 A2 | B4 c4 | %10
w: 5.~Had but the|pri- son *|walls been *|strong And|firm, with-|out a * *|flaw,|In|dark- ness|she had|
w: 6.~But now the|e- ver- *|las- ting *|hills Through|eve- ry|chink ap- * *|pear;|And|some- thing|of the|
 (d3 e) (f3 e) | d6 f2 | g4 d4 | e4 (d2 c2) | (B4 A4) | z4 d4 | e4 (d2 c2) | B4 A4 | G8 :| %19
w: dwelt * too *|long And|less of|glo- ry *|saw, *|And|less of *|glo- ry|saw.|
w: joy * she *|feels While|she's a|pris- oner *|here, *|While|she's a *|pris- oner|here.|
V:4
 G,4 D,2 D,2 | E,6 D,2 | C,4 F,4 | B,,6 C,2 | D,6 E,2 | C,4 G,4 | D,8 |: z4 D,4 | D,6 C,2 | %9
w: 7.~The shines of|heav'n run|sweet- ly|in At|all the|ga- ping|flaws;|Vi-|sions of|
w: 8.~O may these|walls stand|tot- tering|still, The|brea- ches|ne- ver|close,|If|I must|
w: 9.~O ra- ther|let this|flesh de-|cay, The|ru- ins|wi- der|grow,|Till,|glad to|
 B,,4 F,4 | B,4 F,4 | G,6 z2 | z4 z2 G,2 | C,2 C,2 D,2 =E,2 | F,8 | z4 G,4 | C,4 F,4 | %17
w: end- less|bliss are|seen,|And|na- tive air she|draws,|And|na- tive|
w: here in|dark- ness|dwell,|And|all this glo- ry|lose!|And|all this|
w: see the|en- larged|way,|I|stretch my pin- ions|through,|I|stretch my|
 (B,,3 C,) D,4 | G,,8 :| %19
w: air * she|draws.|
w: glo- * ry|lose!|
w: pin- * ions|through.|

